packages/calcite-ui-icons/icons/bulldozer-16.svg

<?xml version="1.0" encoding="UTF-8"?><svg id="icons" xmlns="http://www.w3.org/2000/svg" viewBox="0 0 16 16"><defs><style>.cls-1{fill:none;}</style></defs><path d="M1.13379,13.00879c-.15918-.4834-.08594-.9873.2002-1.38379.2832-.3916.7373-.625,1.21582-.625h8.99042c-.47357-.62463-1.21082-1-1.99042-1H3v-2h-1v-.46191l.2959-.53809h9.39551l.30859.61816v3.38184h1v-3.61816l-.69141-1.38184h-2.30859v-2h-1v2h-1.25879l-.5-4H1v1h1v3h-.2959l-.7041,1.28027v1.71973h1v1.06635c-.58624.13403-1.11609.47461-1.47656.97272-.47656.65918-.59961,1.49121-.33887,2.2832.33105,1.00293,1.32129,1.67773,2.46387,1.67773h6.80371c.84393,0,1.62463-.38861,2.09979-1H2.64844c-.69922,0-1.32129-.4082-1.51465-.99121ZM5,3h1.3584l.375,3h-1.7334v-3ZM3,3h1v3h-1v-3ZM2,12h6v1H2v-1ZM14,15v-2h-4v-1h4v-3h1v4l1,2h-2Z"/><rect class="cls-1" width="16" height="16"/></svg>

<svg xmlns="http://www.w3.org/2000/svg" viewBox="0 0 16 16"><path d="M1.134 13.009A1.506 1.506 0 0 1 2.55 11h8.99c-.473-.625-1.21-1-1.99-1H3V8H2v-.462L2.296 7h9.395l.309.618V11h1V7.382L12.309 6H10V4H9v2H7.741l-.5-4H1v1h1v3h-.296L1 7.28V9h1v1.066a2.514 2.514 0 0 0-1.477.973 2.51 2.51 0 0 0-.338 2.283C.515 14.325 1.505 15 2.648 15h6.804c.844 0 1.625-.389 2.1-1H2.648c-.699 0-1.32-.408-1.514-.991zM5 3h1.358l.375 3H5V3zM3 3h1v3H3V3zm-1 9h6v1H2v-1zm12 3v-2h-4v-1h4V9h1v4l1 2h-2z"/><path fill="none" d="M0 0h16v16H0z"/></svg>
